!!!OTL: "Uebele Vorbedeutung" SCHOENSTER SCHATZ, MEIN ENGEL
!!!ARE: Europa, Mitteleuropa, Deutschland, Niederrhein
!!!SCT: Z1173
!!!YEM: Copyright 1995, estate of Helmut Schaffrath.
**kern
*ICvox
*Ivox
*M3/4
*k[f#]
*G:
{2g
4b
=1
2.dd
=2
2.ee
=3
2dd
4b}
=4
{4dd
4dd
4dd
=5
2cc
4dd
=6
2.b}
=7
{2g
4b
=8
2.dd
=9
2.ee
=10
2dd
4b}
=11
{4dd
4dd
4dd
=12
2cc
4dd
=13
2b}
{4dd
=14
2b
4g
=15
2.a
=16
2.dd
=17
2b
4g}
=18
{4b
4b
4b
=19
4a
4g
4a
=20
2.g}
==
!!!AGN: Liebes - Lied
!!!ONB: ESAC (Essen Associative Code) Database: ZUCCAL
!!!AMT: simple triple
!!!AIN: vox
!!!EED: Helmut Schaffrath
!!!EEV: 1.0
*-
